web/public/images/svg/changa_sd-card.svg

<svg id="icons" xmlns="http://www.w3.org/2000/svg" viewBox="0 0 64 64"><title>changa_sd-card</title><path id="_Compound_Path_" data-name="&lt;Compound Path&gt;" d="M52.89,30.32V25.75H54.7V8.59L46.31,0H11.79A2.49,2.49,0,0,0,9.3,2.48V21.11H11V34.95H9.3V61.52A2.49,2.49,0,0,0,11.79,64H52.21a2.49,2.49,0,0,0,2.48-2.48V30.32Zm-15.41-22a1.24,1.24,0,0,1,1.24-1.24h2.42a1.24,1.24,0,0,1,1.24,1.24V19.87a1.24,1.24,0,0,1-1.24,1.24H38.72a1.24,1.24,0,0,1-1.24-1.24Zm-8,0a1.24,1.24,0,0,1,1.24-1.24h2.42A1.24,1.24,0,0,1,34.4,8.31V19.87a1.24,1.24,0,0,1-1.24,1.24H30.74a1.24,1.24,0,0,1-1.24-1.24Zm-8,0a1.24,1.24,0,0,1,1.24-1.24h2.42a1.24,1.24,0,0,1,1.24,1.24V19.87a1.24,1.24,0,0,1-1.24,1.24H22.77a1.24,1.24,0,0,1-1.24-1.24Zm-8,0a1.24,1.24,0,0,1,1.24-1.24h2.42a1.24,1.24,0,0,1,1.24,1.24V19.87a1.24,1.24,0,0,1-1.24,1.24H14.72a1.24,1.24,0,0,1-1.24-1.24Zm36.87,49.6a2.57,2.57,0,0,1-2.48,2.63H16.13a2.57,2.57,0,0,1-2.48-2.63V25.75h36.7Zm0-38a1.24,1.24,0,0,1-1.24,1.24H46.69a1.24,1.24,0,0,1-1.24-1.24V12.16a1.24,1.24,0,0,1,1.24-1.24h2.42a1.24,1.24,0,0,1,1.24,1.24Z"/></svg>

<?xml version="1.0" encoding="utf-8"?>
<!-- Generator: Adobe Illustrator 21.0.2, SVG Export Plug-In . SVG Version: 6.00 Build 0)  -->
<svg version="1.1" id="icons" xmlns="http://www.w3.org/2000/svg" xmlns:xlink="http://www.w3.org/1999/xlink" x="0px" y="0px"
	 viewBox="0 0 64 64" style="enable-background:new 0 0 64 64;" xml:space="preserve">
<style type="text/css">
	.st0{stroke:#FFFFFF;stroke-width:0;stroke-linecap:round;stroke-linejoin:round;}
	.st1{fill:none;stroke:#000000;stroke-width:1.5;stroke-miterlimit:10;}
</style>
<path id="XMLID_224_" d="M52.9,30.3v-4.6h1.8V8.6L46.3,0H11.8c-1.4,0-2.5,1.1-2.5,2.5v18.6H11v13.8H9.3v26.6c0,1.4,1.1,2.5,2.5,2.5
	h40.4c1.4,0,2.5-1.1,2.5-2.5V30.3H52.9z M37.5,8.3c0-0.7,0.6-1.2,1.2-1.2h2.4c0.7,0,1.2,0.6,1.2,1.2v11.6c0,0.7-0.6,1.2-1.2,1.2
	h-2.4c-0.7,0-1.2-0.6-1.2-1.2V8.3z M29.5,8.3c0-0.7,0.6-1.2,1.2-1.2h2.4c0.7,0,1.2,0.6,1.2,1.2v11.6c0,0.7-0.6,1.2-1.2,1.2h-2.4
	c-0.7,0-1.2-0.6-1.2-1.2V8.3z M21.5,8.3c0-0.7,0.6-1.2,1.2-1.2h2.4c0.7,0,1.2,0.6,1.2,1.2v11.6c0,0.7-0.6,1.2-1.2,1.2h-2.4
	c-0.7,0-1.2-0.6-1.2-1.2V8.3z M13.5,8.3c0-0.7,0.6-1.2,1.2-1.2h2.4c0.7,0,1.2,0.6,1.2,1.2v11.6c0,0.7-0.6,1.2-1.2,1.2h-2.4
	c-0.7,0-1.2-0.6-1.2-1.2V8.3z M50.4,57.9c0,1.4-1.1,2.6-2.5,2.6H16.1c-1.4,0-2.5-1.2-2.5-2.6V25.7h36.7V57.9z M50.4,19.9
	c0,0.7-0.6,1.2-1.2,1.2h-2.4c-0.7,0-1.2-0.6-1.2-1.2v-7.7c0-0.7,0.6-1.2,1.2-1.2h2.4c0.7,0,1.2,0.6,1.2,1.2V19.9z"/>
</svg>
